app/images/popout.svg

<svg height="22" viewBox="0 0 22 22" width="22" xmlns="http://www.w3.org/2000/svg" xmlns:xlink="http://www.w3.org/1999/xlink"><mask id="a" fill="#fff"><path d="m-.00035 0h11.00025v10.9997h-11.00025z" fill="#fff" fill-rule="evenodd"/></mask><g fill="#4a4a4a" fill-rule="evenodd"><path d="m10.9229.6177c-.102-.244-.296-.439-.541-.541-.122-.05-.251-.077-.382-.077h-6c-.552 0-1 .448-1 1 0 .553.448 1 1 1h3.586l-7.293 7.293c-.391.391-.391 1.024 0 1.414.195.196.451.293.707.293s.512-.097.707-.293l7.293-7.293v3.586c0 .553.448 1 1 1s1-.447 1-1v-6c0-.13-.026-.259-.077-.382" mask="url(#a)" transform="translate(11)"/><path d="m19 10c-.552 0-1 .448-1 1v8c0 .551-.449 1-1 1h-14c-.551 0-1-.449-1-1v-14c0-.551.449-1 1-1h8c.552 0 1-.448 1-1s-.448-1-1-1h-8c-1.654 0-3 1.346-3 3v14c0 1.654 1.346 3 3 3h14c1.654 0 3-1.346 3-3v-8c0-.552-.448-1-1-1"/></g></svg>

<svg height="22" width="22" xmlns="http://www.w3.org/2000/svg">
    <mask id="a" fill="#fff">
        <path d="M0 0h11v11H0z" fill-rule="evenodd"/>
    </mask>
    <g fill="#4a4a4a" fill-rule="evenodd">
        <path d="M10.923.618A1.006 1.006 0 0010 0H4a1 1 0 000 2h3.586L.293 9.293a.999.999 0 101.414 1.414L9 3.414V7a1 1 0 102 0V1a.995.995 0 00-.077-.382" mask="url(#a)" transform="translate(11)"/>
        <path d="M19 10a1 1 0 00-1 1v8c0 .551-.449 1-1 1H3c-.551 0-1-.449-1-1V5c0-.551.449-1 1-1h8a1 1 0 000-2H3C1.346 2 0 3.346 0 5v14c0 1.654 1.346 3 3 3h14c1.654 0 3-1.346 3-3v-8a1 1 0 00-1-1"/>
    </g>
</svg>
